X: 1
T: The Monaghan
R: jig
M: 6/8
L: 1/8
K: Emin
|:BGE F2E|BGE FGA|BGE F2E|AFD FGA|GBE F2E|BGE FGA|d^cd ABG|FDF AGF:||:EGB efg|fed edB|EGB dBG|FDF AGF|EGB efg|fed edB|d^cd ABG|FDF AGF:||:g2e efe|gfg bge|g2e efe|fdf afd|g2e efe|gfg bge|d^cd ABG|FDF AGF:||:EGB edB|dBG AFD|EGB dBG|FDF AGF|EGB GBd|Beg efg|d^cd ABG|FDF AGF:|


Tune 67	Setting 12521

